X:107
T:He chac'd me to my Daddie's door
Z:Jack Campin - http://www.campin.me.uk
S:Blaikie MS (NLS MS.1578) p32, Blaikie #101
M:3/4
L:1/8
V:1 midi program 1 74
V:2 midi program 1 46 bass middle = d transpose -24
Q:1/4=90
K:D
[V:1]  D|FA A2 AA|AA    B3  A|dB AB de|f>e d2
[V:2]  z|D2 d2 d2|f2    g2 f2|g2 f2 d2|a2  d2
%
[V:1] zD|FA A2 AA|A/B/d e2 fe|dB A2 D2|F>E D3|]
[V:2] z2|D2 d2 d2|d2    c2 A2|dg f2 df|a2  d3|]
W:Transcription (c) Jack Campin 2009, no mirroring or republication without permission

